svg/emoji_u0030_20e3.svg

<svg enable-background="new 0 0 128 128" viewBox="0 0 128 128" xmlns="http://www.w3.org/2000/svg"><linearGradient id="b" x1="5.5161" x2="118.82" y1="5.2803" y2="119.05" gradientUnits="userSpaceOnUse"><stop stop-color="#81D4FA" offset="0"/><stop stop-color="#0094D6" offset="1"/></linearGradient><path d="m116 124h-104c-4.42 0-8-3.58-8-8v-104c0-4.42 3.58-8 8-8h104c4.42 0 8 3.58 8 8v104c0 4.42-3.58 8-8 8z" fill="url(#b)"/><g opacity=".2"><path d="m116 7c2.76 0 5 2.24 5 5v104c0 2.76-2.24 5-5 5h-104c-2.76 0-5-2.24-5-5v-104c0-2.76 2.24-5 5-5h104m0-3h-104c-4.42 0-8 3.58-8 8v104c0 4.42 3.58 8 8 8h104c4.42 0 8-3.58 8-8v-104c0-4.42-3.58-8-8-8z" fill="#424242"/></g><linearGradient id="a" x1="21.247" x2="106.25" y1="20.744" y2="106.74" gradientUnits="userSpaceOnUse"><stop stop-color="#C2ECFF" offset="0"/><stop stop-color="#BDEAFE" offset=".157"/><stop stop-color="#AEE3FA" offset=".3484"/><stop stop-color="#95D7F5" offset=".5578"/><stop stop-color="#73C7ED" offset=".7789"/><stop stop-color="#49B3E3" offset="1"/></linearGradient><path d="m101 109h-74c-4.42 0-8-3.58-8-8v-74c0-4.42 3.58-8 8-8h74c4.42 0 8 3.58 8 8v74c0 4.42-3.58 8-8 8z" fill="url(#a)"/><g opacity=".2"><path d="m63.97 26.02c8.09 0 14.12 2.59 18.1 7.77s6.02 12.93 6.12 23.26v12.8c0 10.63-1.99 18.65-5.97 24.04-3.98 5.4-10.03 8.1-18.15 8.1-7.99 0-14.01-2.63-18.05-7.9-4.05-5.26-6.12-13.06-6.22-23.38v-12.8c0-10.63 1.99-18.6 5.97-23.92s10.05-7.97 18.2-7.97m0.11 66.11c3.96 0 6.89-1.57 8.79-4.7 1.89-3.13 2.89-8.03 3-14.7v-16.7c0-6.94-0.95-12.03-2.84-15.26-1.9-3.23-4.91-4.85-9.04-4.85-4.03 0-6.99 1.53-8.89 4.6-1.9 3.06-2.89 7.85-3 14.35v16.76c0 6.91 0.96 12.05 2.89 15.44 1.93 3.37 4.96 5.06 9.09 5.06m-0.11-69.11c-9.12 0-16.05 3.09-20.61 9.18-4.36 5.82-6.56 14.47-6.56 25.72v12.8c0.11 10.97 2.41 19.45 6.84 25.21 4.62 6.02 11.5 9.07 20.43 9.07 9.09 0 16.01-3.14 20.57-9.32 4.35-5.9 6.55-14.59 6.55-25.82v-12.8c-0.11-10.97-2.38-19.4-6.74-25.08-4.55-5.96-11.44-8.96-20.48-8.96zm0.11 66.11c-3.04 0-5.1-1.13-6.48-3.56-1.66-2.91-2.5-7.6-2.5-13.95v-16.76c0.09-5.87 0.95-10.19 2.55-12.77 1.34-2.17 3.35-3.17 6.34-3.17 3.05 0 5.1 1.07 6.45 3.37 1.61 2.75 2.43 7.38 2.43 13.74v16.71c-0.09 6.05-0.95 10.49-2.56 13.15-1.36 2.21-3.33 3.24-6.23 3.24z" fill="#424242"/></g><path d="m88.2 69.84c0 10.63-1.99 18.65-5.97 24.04-3.98 5.4-10.03 8.1-18.15 8.1-7.99 0-14.01-2.63-18.05-7.9-4.05-5.26-6.12-13.06-6.22-23.38v-12.8c0-10.63 1.99-18.6 5.97-23.92 3.98-5.31 10.05-7.97 18.21-7.97 8.09 0 14.12 2.59 18.1 7.77s6.02 12.93 6.12 23.26v12.8zm-12.34-13.81c0-6.94-0.95-12.03-2.84-15.26-1.9-3.23-4.91-4.85-9.04-4.85-4.03 0-6.99 1.53-8.89 4.6-1.9 3.06-2.89 7.85-3 14.35v16.76c0 6.91 0.96 12.05 2.89 15.44s4.96 5.08 9.09 5.08c3.96 0 6.89-1.57 8.79-4.7 1.89-3.13 2.89-8.03 3-14.7v-16.72z" fill="#FAFAFA"/></svg>

<svg width="128" height="128" style="enable-background:new 0 0 128 128;" xmlns="http://www.w3.org/2000/svg" xmlns:xlink="http://www.w3.org/1999/xlink">
  <g>
    <linearGradient id="SVGID_1_" gradientUnits="userSpaceOnUse" x1="5.5161" x2="118.8247" y1="5.2803" y2="119.0458">
      <stop offset="0" style="stop-color:#81D4FA"/>
      <stop offset="1" style="stop-color:#0094D6"/>
    </linearGradient>
    <path d="M116,124H12c-4.42,0-8-3.58-8-8V12c0-4.42,3.58-8,8-8h104c4.42,0,8,3.58,8,8v104 C124,120.42,120.42,124,116,124z" style="fill:url(#SVGID_1_);"/>
    <g style="opacity:0.2;">
      <path d="M116,7c2.76,0,5,2.24,5,5v104c0,2.76-2.24,5-5,5H12c-2.76,0-5-2.24-5-5V12c0-2.76,2.24-5,5-5H116 M116,4H12c-4.42,0-8,3.58-8,8v104c0,4.42,3.58,8,8,8h104c4.42,0,8-3.58,8-8V12C124,7.58,120.42,4,116,4L116,4z" style="fill:#424242;"/>
    </g>
    <linearGradient id="SVGID_2_" gradientUnits="userSpaceOnUse" x1="21.2471" x2="106.2471" y1="20.7441" y2="106.7441">
      <stop offset="0" style="stop-color:#C2ECFF"/>
      <stop offset="0.157" style="stop-color:#BDEAFE"/>
      <stop offset="0.3484" style="stop-color:#AEE3FA"/>
      <stop offset="0.5578" style="stop-color:#95D7F5"/>
      <stop offset="0.7789" style="stop-color:#73C7ED"/>
      <stop offset="1" style="stop-color:#49B3E3"/>
    </linearGradient>
    <path d="M101,109H27c-4.42,0-8-3.58-8-8V27c0-4.42,3.58-8,8-8h74c4.42,0,8,3.58,8,8v74 C109,105.42,105.42,109,101,109z" style="fill:url(#SVGID_2_);"/>
  </g>
  <g>
    <g style="opacity:0.2;">
      <path d="M63.97,26.02c8.09,0,14.12,2.59,18.1,7.77c3.98,5.18,6.02,12.93,6.12,23.26v12.8 c0,10.63-1.99,18.65-5.97,24.04c-3.98,5.4-10.03,8.1-18.15,8.1c-7.99,0-14.01-2.63-18.05-7.9c-4.05-5.26-6.12-13.06-6.22-23.38 v-12.8c0-10.63,1.99-18.6,5.97-23.92C49.75,28.67,55.82,26.02,63.97,26.02 M64.08,92.13c3.96,0,6.89-1.57,8.79-4.7 c1.89-3.13,2.89-8.03,3-14.7V56.03c0-6.94-0.95-12.03-2.84-15.26c-1.9-3.23-4.91-4.85-9.04-4.85c-4.03,0-6.99,1.53-8.89,4.6 c-1.9,3.06-2.89,7.85-3,14.35v16.76c0,6.91,0.96,12.05,2.89,15.44C56.92,90.44,59.95,92.13,64.08,92.13 M63.97,23.02 c-9.12,0-16.05,3.09-20.61,9.18c-4.36,5.82-6.56,14.47-6.56,25.72v12.8c0.11,10.97,2.41,19.45,6.84,25.21 c4.62,6.02,11.5,9.07,20.43,9.07c9.09,0,16.01-3.14,20.57-9.32c4.35-5.9,6.55-14.59,6.55-25.82v-12.8 c-0.11-10.97-2.38-19.4-6.74-25.08C79.9,26.02,73.01,23.02,63.97,23.02L63.97,23.02z M64.08,89.13c-3.04,0-5.1-1.13-6.48-3.56 c-1.66-2.91-2.5-7.6-2.5-13.95V54.86c0.09-5.87,0.95-10.19,2.55-12.77c1.34-2.17,3.35-3.17,6.34-3.17c3.05,0,5.1,1.07,6.45,3.37 c1.61,2.75,2.43,7.38,2.43,13.74v16.71c-0.09,6.05-0.95,10.49-2.56,13.15C68.95,88.1,66.98,89.13,64.08,89.13L64.08,89.13z" style="fill:#424242;"/>
    </g>
    <path d="M88.2,69.84c0,10.63-1.99,18.65-5.97,24.04c-3.98,5.4-10.03,8.1-18.15,8.1 c-7.99,0-14.01-2.63-18.05-7.9c-4.05-5.26-6.12-13.06-6.22-23.38v-12.8c0-10.63,1.99-18.6,5.97-23.92 c3.98-5.31,10.05-7.97,18.21-7.97c8.09,0,14.12,2.59,18.1,7.77c3.98,5.18,6.02,12.93,6.12,23.26V69.84z M75.86,56.03 c0-6.94-0.95-12.03-2.84-15.26c-1.9-3.23-4.91-4.85-9.04-4.85c-4.03,0-6.99,1.53-8.89,4.6c-1.9,3.06-2.89,7.85-3,14.35v16.76 c0,6.91,0.96,12.05,2.89,15.44c1.93,3.39,4.96,5.08,9.09,5.08c3.96,0,6.89-1.57,8.79-4.7c1.89-3.13,2.89-8.03,3-14.7V56.03z" style="fill:#FAFAFA;"/>
  </g>
</svg>
